X: 27099
T: Miss Lucy Johnston's Compliments To Niel Gow
R: strathspey
M: 4/4
K: Cmajor
G|:c3G/E/ F>G AG/F/|E>F GF/E/ FD DG|c3G/E/ F>G AG/F/|E/F/G/E/ D/E/F/D/ EC CG:|
c2 g>e a>f g>e|c>e a/g/f/e/ dc BG|c2 g>e a>f g>e|Af e/d/c/B/ c3G|
c>e gc' ba/b/ c'g|fd ec d/c/B/A/ G/F/E/D/|Ec Fd Ge Af|ed/c/ E/F/G/F/ EC C||

